packages/match-logos/mono/svg/surveymonkey.svg

<svg fill="none" height="48" viewBox="0 0 131 48" width="131" xmlns="http://www.w3.org/2000/svg" xmlns:xlink="http://www.w3.org/1999/xlink"><clipPath id="a"><path d="m0 0h130.8v48h-130.8z"/></clipPath><g clip-path="url(#a)"><path d="m1.7424 40.4784c.93.99 2.2356 1.6836 3.6804 1.6836 1.74-.018 2.964-.672 2.964-1.86 0-2.772-8.016-.0984-8.016-5.1672 0-2.22 2.316-3.744 5.148-3.744 2.0592 0 3.72.6504 4.9488 1.896l-1.7016 1.524c-1.128-1.1064-2.1576-1.482-3.3648-1.482-1.9008 0-2.616.93-2.616 1.6836 0 2.7888 8.016 0 8.016 5.1648 0 2.592-2.6316 4.158-5.4804 4.158-.99559-.0029-1.98029-.2074-2.89473-.6011-.91445-.3937-1.739718-.9685-2.42607-1.6897l1.7424-1.5672zm10.4712-.4344c0 2.6928 2.1 4.296 4.3752 4.296 2.2764 0 4.3728-1.6044 4.3728-4.296v-5.544h-2.0568v5.3664c0 1.404-1.0296 2.412-2.316 2.412-1.2876 0-2.316-1.008-2.316-2.412v-5.364h-2.0592zm10.8876 4.038h2.064v-6.336c0-.87.672-1.4436 1.4232-1.4436.1992 0 .576.12.7728.276l.732-2.0376c-.3407-.2029-.7315-.306-1.128-.2976-.8328 0-1.5444.516-1.8816 1.308h-.0384v-1.05h-1.944v9.5856zm10.218.258 4.434-9.84h-2.298l-2.118 5.484h-.0408l-2.1168-5.484h-2.2968l4.4352 9.84zm12.7464-3.3084c-.7116.948-1.6632 1.488-2.7696 1.488-1.446 0-2.8128-1.0512-2.9328-2.514h7.956v-.3768c0-3.7404-2.9664-5.3856-4.968-5.3856-3.3444 0-5.2824 2.5152-5.2824 5.0496 0 2.532 1.9392 5.0484 5.2848 5.0484 1.7232-.0168 3.306-.888 4.4544-2.334l-1.7436-.972zm-5.7-2.73c.336-1.4244 1.404-2.2368 2.712-2.2368s2.3964.7704 2.832 2.2368zm9.4224 1.7424c0 2.6928 1.74 4.296 3.8784 4.296 1.3248 0 2.076-.396 2.8896-1.308h.0396v.516c0 1.68-1.188 2.514-2.5512 2.514-.8904 0-1.5456-.378-2.1984-1.0104l-1.74 1.068c.93 1.0704 1.902 1.8804 4.0596 1.8804 1.7796 0 4.374-1.2864 4.374-4.2144v-9.2856h-2.058v5.4264c0 1.482-.774 2.472-2.376 2.472-1.2672 0-2.256-.672-2.256-2.2752v-5.6208h-2.0616zm11.1036 4.038h2.2968v-7.68l3.2256 3.3432 3.228-3.3396v7.68h2.2968v-12.69l-5.5248 5.5824-5.52-5.5824v12.6876zm17.796-9.84c-3.348 0-5.2848 2.5152-5.2848 5.052 0 2.532 1.9368 5.0472 5.2848 5.0472 3.3456 0 5.2848-2.5116 5.2848-5.0436 0-2.5356-1.9392-5.0496-5.2836-5.0496zm.0012 8.1588c-1.8 0-3.108-1.38-3.108-3.1032 0-1.7208 1.308-3.108 3.108-3.108s3.108 1.3872 3.108 3.108-1.308 3.1044-3.108 3.1044zm6.732 1.6872h2.0556v-5.364c0-1.5648 1.032-2.4156 2.3568-2.4156 1.368 0 2.28.714 2.28 2.454v5.3256h2.0556v-5.784c0-2.3724-1.7016-4.056-3.72-4.056-1.308 0-2.358.576-2.9316 1.464h-.0408v-1.212h-2.0604v9.582zm11.676 0h2.0592v-3.9996h1.248l2.532 3.9984h2.436l-3.404-5.07 3.244-4.512h-2.492l-2.52 3.6408h-1.0488v-6.492h-2.0592v6.492h-1.3464v1.9392h1.3464v3.996zm16.9032-3.054c-.713.948-1.662 1.488-2.772 1.488-1.444 0-2.81-1.0512-2.928-2.514h7.956v-.3744c0-3.7404-2.969-5.3856-4.968-5.3856-3.343 0-5.286 2.514-5.286 5.0484 0 2.532 1.944 5.0484 5.286 5.0484 1.722-.0204 3.306-.8916 4.452-2.3376l-1.74-.972zm-5.7-2.73c.336-1.422 1.404-2.2344 2.712-2.2344 1.304 0 2.395.7704 2.83 2.2368h-5.544zm9.223 1.7448c0 2.6928 1.74 4.296 3.879 4.296 1.327 0 2.078-.396 2.889-1.308h.04v.516c0 1.68-1.188 2.514-2.556 2.514-.888 0-1.545-.3804-2.196-1.0128l-1.74 1.068c.929 1.0704 1.896 1.8804 4.056 1.8804 1.779 0 4.374-1.2864 4.374-4.2144v-9.288h-2.058v5.4276c0 1.482-.774 2.472-2.376 2.472-1.269 0-2.259-.672-2.259-2.2752v-5.6208h-2.058v5.5416zm11.455-4.86h.232c.101 0 .168.0084.204.0216.035.0141.066.0378.089.0684.018.0288.027.062.027.096 0 .06-.021.108-.064.144-.044.036-.126.054-.24.054h-.252v-.384zm0 1.1004v-.54h.12c.072 0 .125.018.162.048.054.036.126.1368.216.294l.112.2004h.248l-.156-.2484c-.052-.0911-.115-.1757-.187-.252-.031-.0293-.068-.0525-.108-.0684.1-.0019.195-.0434.264-.1152.033-.0317.059-.0698.076-.1119s.026-.0874.025-.1329c0-.0663-.021-.1309-.06-.1848-.039-.0579-.095-.1017-.161-.1248-.106-.0273-.215-.0386-.324-.0336h-.439v1.272h.209zm.312-1.6368c.162 0 .324.0444.483.1284.156.0831.284.2104.368.366.089.1608.132.3264.132.4968-.001.1718-.047.3403-.132.4896-.087.149-.211.2729-.361.3596-.149.0866-.318.1331-.491.1348-.171-.0005-.34-.046-.488-.132-.154-.0842-.282-.2103-.367-.3636-.065-.1131-.106-.2378-.122-.367-.017-.1292-.007-.2603.027-.3858.035-.1255.094-.2429.174-.3456s.179-.1886.293-.2528c.148-.0825.315-.1263.484-.1272zm0-.1932c-.203.0014-.404.0543-.582.1536-.187.099-.34.2509-.441.4368-.105.1799-.16.3845-.16.5928 0 .204.053.3984.156.5856.102.1847.253.3367.438.438.18.1016.382.155.588.155s.409-.0534.588-.155c.18-.1037.33-.2528.434-.4324.105-.1796.16-.3834.161-.5912 0-.2082-.055-.4127-.159-.5928-.102-.1865-.256-.3386-.444-.4368-.176-.0991-.374-.152-.576-.1536zm-51.2576-15.516c.48 0 .876-.3888.876-.876-.001-.1588-.045-.3143-.1272-.4502-.0823-.1358-.1998-.2468-.34-.3212-.1403-.0745-.2981-.1095-.4567-.1015-.1586.0079-.312.0587-.4441.1469-.0036.4644-.0396.924-.0924 1.3752.156.138.36.2244.5832.2244zm-27.8412-.0024c.2188-.0008.4294-.0834.5904-.2316-.0555-.454-.0867-.9107-.0936-1.368-.113-.0783-.2429-.1289-.3791-.1478-.1362-.0188-.275-.0053-.405.0395-.13.0447-.2477.1195-.3434.2182-.0958.0986-.167.2184-.2079.3497s-.0502.2704-.0274.406c.0229.1356.0773.2639.159.3746.0816.1106.1882.2005.311.2623s.2585.0938.396.0935zm27.9888-5.2356c1.1569 0 2.2664.4596 3.0844 1.2776s1.2776 1.9275 1.2776 3.0844-.4596 2.2664-1.2776 3.0844-1.9275 1.2776-3.0844 1.2776c-.5453-.0006-1.0857-.1044-1.5924-.306-.372.9286-.847 1.8125-1.416 2.6352l-3.576-2.436c.96-1.242 1.548-3.0804 1.6344-4.9008.096-1.9632-.3936-3.9036-1.6488-5.0568-2.592-2.2044-5.412-1.2312-7.2.864h-.4728c-1.788-2.136-4.638-3.156-7.2552-.924-1.272 1.1604-1.7556 3.1356-1.6476 5.124.096 1.8024.684 3.6144 1.6404 4.8432l.048.03-3.636 2.4528c-.5689-.8232-1.0438-1.7075-1.416-2.6364-.5069.201-1.0471.3049-1.5924.306-1.1392-.0267-2.2227-.498-3.0189-1.3131-.7962-.8152-1.242-1.9094-1.242-3.0489s.4458-2.2337 1.242-3.0489c.7962-.8151 1.8797-1.2864 3.0189-1.3131.36 0 .708.048 1.0416.1284 1.3752-5.436 6.0636-9.552 11.7924-10.074.444-1.404-.6-2.4144-.93-2.718-.0648-.0564.066-.1008.066-.1008 1.6512.792 1.92 1.908 1.884 2.6484.8508-2.3808 4.6524-3.5844 4.6524-3.5844l.0672.1344c-2.2716 1.3716-2.616 2.796-2.5368 3.7032 2.6209.39119 5.0679 1.54762 7.0341 3.32421 1.9661 1.7766 3.3639 4.09429 4.0179 6.66219.3405-.0836.6898-.1267 1.0404-.1284" fill="#1f304c"/></g></svg>

<svg width="131" height="48" viewBox="0 0 131 48" fill="none" xmlns="http://www.w3.org/2000/svg">
<g clip-path="url(#clip0)">
<path d="M1.7424 40.4784C2.6724 41.4684 3.978 42.162 5.4228 42.162C7.1628 42.144 8.3868 41.49 8.3868 40.302C8.3868 37.53 0.3708 40.2036 0.3708 35.1348C0.3708 32.9148 2.6868 31.3908 5.5188 31.3908C7.578 31.3908 9.2388 32.0412 10.4676 33.2868L8.766 34.8108C7.638 33.7044 6.6084 33.3288 5.4012 33.3288C3.5004 33.3288 2.7852 34.2588 2.7852 35.0124C2.7852 37.8012 10.8012 35.0124 10.8012 40.1772C10.8012 42.7692 8.1696 44.3352 5.3208 44.3352C4.32521 44.3323 3.34051 44.1278 2.42607 43.7341C1.51162 43.3404 0.686352 42.7656 0 42.0444L1.7424 40.4772V40.4784ZM12.2136 40.044C12.2136 42.7368 14.3136 44.34 16.5888 44.34C18.8652 44.34 20.9616 42.7356 20.9616 40.044V34.5H18.9048V39.8664C18.9048 41.2704 17.8752 42.2784 16.5888 42.2784C15.3012 42.2784 14.2728 41.2704 14.2728 39.8664V34.5024H12.2136V40.044ZM23.1012 44.082H25.1652V37.746C25.1652 36.876 25.8372 36.3024 26.5884 36.3024C26.7876 36.3024 27.1644 36.4224 27.3612 36.5784L28.0932 34.5408C27.7525 34.3379 27.3617 34.2348 26.9652 34.2432C26.1324 34.2432 25.4208 34.7592 25.0836 35.5512H25.0452V34.5012H23.1012V44.0868V44.082ZM33.3192 44.34L37.7532 34.5H35.4552L33.3372 39.984H33.2964L31.1796 34.5H28.8828L33.318 44.34H33.3192ZM46.0656 41.0316C45.354 41.9796 44.4024 42.5196 43.296 42.5196C41.85 42.5196 40.4832 41.4684 40.3632 40.0056H48.3192V39.6288C48.3192 35.8884 45.3528 34.2432 43.3512 34.2432C40.0068 34.2432 38.0688 36.7584 38.0688 39.2928C38.0688 41.8248 40.008 44.3412 43.3536 44.3412C45.0768 44.3244 46.6596 43.4532 47.808 42.0072L46.0644 41.0352L46.0656 41.0316ZM40.3656 38.3016C40.7016 36.8772 41.7696 36.0648 43.0776 36.0648C44.3856 36.0648 45.474 36.8352 45.9096 38.3016H40.3656ZM49.788 40.044C49.788 42.7368 51.528 44.34 53.6664 44.34C54.9912 44.34 55.7424 43.944 56.556 43.032H56.5956V43.548C56.5956 45.228 55.4076 46.062 54.0444 46.062C53.154 46.062 52.4988 45.684 51.846 45.0516L50.106 46.1196C51.036 47.19 52.008 48 54.1656 48C55.9452 48 58.5396 46.7136 58.5396 43.7856V34.5H56.4816V39.9264C56.4816 41.4084 55.7076 42.3984 54.1056 42.3984C52.8384 42.3984 51.8496 41.7264 51.8496 40.1232V34.5024H49.788V40.044ZM60.8916 44.082H63.1884V36.402L66.414 39.7452L69.642 36.4056V44.0856H71.9388V31.3956L66.414 36.978L60.894 31.3956V44.0832L60.8916 44.082ZM78.6876 34.242C75.3396 34.242 73.4028 36.7572 73.4028 39.294C73.4028 41.826 75.3396 44.3412 78.6876 44.3412C82.0332 44.3412 83.9724 41.8296 83.9724 39.2976C83.9724 36.762 82.0332 34.248 78.6888 34.248L78.6876 34.242ZM78.6888 42.4008C76.8888 42.4008 75.5808 41.0208 75.5808 39.2976C75.5808 37.5768 76.8888 36.1896 78.6888 36.1896C80.4888 36.1896 81.7968 37.5768 81.7968 39.2976C81.7968 41.0184 80.4888 42.402 78.6888 42.402V42.4008ZM85.4208 44.088H87.4764V38.724C87.4764 37.1592 88.5084 36.3084 89.8332 36.3084C91.2012 36.3084 92.1132 37.0224 92.1132 38.7624V44.088H94.1688V38.304C94.1688 35.9316 92.4672 34.248 90.4488 34.248C89.1408 34.248 88.0908 34.824 87.5172 35.712H87.4764V34.5H85.416V44.082L85.4208 44.088ZM97.0968 44.088H99.156V40.0884H100.404L102.936 44.0868H105.372L101.968 39.0168L105.212 34.5048H102.72L100.2 38.1456H99.1512V31.6536H97.092V38.1456H95.7456V40.0848H97.092V44.0808L97.0968 44.088ZM114 41.034C113.287 41.982 112.338 42.522 111.228 42.522C109.784 42.522 108.418 41.4708 108.3 40.008H116.256V39.6336C116.256 35.8932 113.287 34.248 111.288 34.248C107.945 34.248 106.002 36.762 106.002 39.2964C106.002 41.8284 107.946 44.3448 111.288 44.3448C113.01 44.3244 114.594 43.4532 115.74 42.0072L114 41.0352V41.034ZM108.3 38.304C108.636 36.882 109.704 36.0696 111.012 36.0696C112.316 36.0696 113.407 36.84 113.842 38.3064H108.298L108.3 38.304ZM117.523 40.0488C117.523 42.7416 119.263 44.3448 121.402 44.3448C122.729 44.3448 123.48 43.9488 124.291 43.0368H124.331V43.5528C124.331 45.2328 123.143 46.0668 121.775 46.0668C120.887 46.0668 120.23 45.6864 119.579 45.054L117.839 46.122C118.768 47.1924 119.735 48.0024 121.895 48.0024C123.674 48.0024 126.269 46.716 126.269 43.788V34.5H124.211V39.9276C124.211 41.4096 123.437 42.3996 121.835 42.3996C120.566 42.3996 119.576 41.7276 119.576 40.1244V34.5036H117.518V40.0452L117.523 40.0488ZM128.978 35.1888H129.21C129.311 35.1888 129.378 35.1972 129.414 35.2104C129.449 35.2245 129.48 35.2482 129.503 35.2788C129.521 35.3076 129.53 35.3408 129.53 35.3748C129.53 35.4348 129.509 35.4828 129.466 35.5188C129.422 35.5548 129.34 35.5728 129.226 35.5728H128.974V35.1888H128.978ZM128.978 36.2892V35.7492H129.098C129.17 35.7492 129.223 35.7672 129.26 35.7972C129.314 35.8332 129.386 35.934 129.476 36.0912L129.588 36.2916H129.836L129.68 36.0432C129.628 35.9521 129.565 35.8675 129.493 35.7912C129.462 35.7619 129.425 35.7387 129.385 35.7228C129.485 35.7209 129.58 35.6794 129.649 35.6076C129.682 35.5759 129.708 35.5378 129.725 35.4957C129.742 35.4536 129.751 35.4083 129.75 35.3628C129.75 35.2965 129.729 35.2319 129.69 35.178C129.651 35.1201 129.595 35.0763 129.529 35.0532C129.423 35.0259 129.314 35.0146 129.205 35.0196H128.766V36.2916H128.975L128.978 36.2892ZM129.29 34.6524C129.452 34.6524 129.614 34.6968 129.773 34.7808C129.929 34.8639 130.057 34.9912 130.141 35.1468C130.23 35.3076 130.273 35.4732 130.273 35.6436C130.272 35.8154 130.226 35.9839 130.141 36.1332C130.054 36.2822 129.93 36.4061 129.78 36.4928C129.631 36.5794 129.462 36.6259 129.289 36.6276C129.118 36.6271 128.949 36.5816 128.801 36.4956C128.647 36.4114 128.519 36.2853 128.434 36.132C128.369 36.0189 128.328 35.8942 128.312 35.765C128.295 35.6358 128.305 35.5047 128.339 35.3792C128.374 35.2537 128.433 35.1363 128.513 35.0336C128.593 34.9309 128.692 34.845 128.806 34.7808C128.954 34.6983 129.121 34.6545 129.29 34.6536V34.6524ZM129.29 34.4592C129.087 34.4606 128.886 34.5135 128.708 34.6128C128.521 34.7118 128.368 34.8637 128.267 35.0496C128.162 35.2295 128.107 35.4341 128.107 35.6424C128.107 35.8464 128.16 36.0408 128.263 36.228C128.365 36.4127 128.516 36.5647 128.701 36.666C128.881 36.7676 129.083 36.821 129.289 36.821C129.495 36.821 129.698 36.7676 129.877 36.666C130.057 36.5623 130.207 36.4132 130.311 36.2336C130.416 36.054 130.471 35.8502 130.472 35.6424C130.472 35.4342 130.417 35.2297 130.313 35.0496C130.211 34.8631 130.057 34.711 129.869 34.6128C129.693 34.5137 129.495 34.4608 129.293 34.4592H129.29ZM78.0324 18.9432C78.5124 18.9432 78.9084 18.5544 78.9084 18.0672C78.9074 17.9084 78.8634 17.7529 78.7812 17.617C78.6989 17.4812 78.5814 17.3702 78.4412 17.2958C78.3009 17.2213 78.1431 17.1863 77.9845 17.1943C77.8259 17.2022 77.6725 17.253 77.5404 17.3412C77.5368 17.8056 77.5008 18.2652 77.448 18.7164C77.604 18.8544 77.808 18.9408 78.0312 18.9408L78.0324 18.9432ZM50.1912 18.9408C50.41 18.94 50.6206 18.8574 50.7816 18.7092C50.7261 18.2552 50.6949 17.7985 50.688 17.3412C50.575 17.2629 50.4451 17.2123 50.3089 17.1934C50.1727 17.1746 50.0339 17.1881 49.9039 17.2329C49.7739 17.2776 49.6562 17.3524 49.5605 17.4511C49.4647 17.5497 49.3935 17.6695 49.3526 17.8008C49.3117 17.9321 49.3024 18.0712 49.3252 18.2068C49.3481 18.3424 49.4025 18.4707 49.4842 18.5814C49.5658 18.692 49.6724 18.7819 49.7952 18.8437C49.918 18.9055 50.0537 18.9375 50.1912 18.9372V18.9408ZM78.18 13.7052C79.3369 13.7052 80.4464 14.1648 81.2644 14.9828C82.0824 15.8008 82.542 16.9103 82.542 18.0672C82.542 19.2241 82.0824 20.3336 81.2644 21.1516C80.4464 21.9696 79.3369 22.4292 78.18 22.4292C77.6347 22.4286 77.0943 22.3248 76.5876 22.1232C76.2156 23.0518 75.7406 23.9357 75.1716 24.7584L71.5956 22.3224C72.5556 21.0804 73.1436 19.242 73.23 17.4216C73.326 15.4584 72.8364 13.518 71.5812 12.3648C68.9892 10.1604 66.1692 11.1336 64.3812 13.2288H63.9084C62.1204 11.0928 59.2704 10.0728 56.6532 12.3048C55.3812 13.4652 54.8976 15.4404 55.0056 17.4288C55.1016 19.2312 55.6896 21.0432 56.646 22.272L56.694 22.302L53.058 24.7548C52.4891 23.9316 52.0142 23.0473 51.642 22.1184C51.1351 22.3194 50.5949 22.4233 50.0496 22.4244C48.9104 22.3977 47.8269 21.9264 47.0307 21.1113C46.2345 20.2961 45.7887 19.2019 45.7887 18.0624C45.7887 16.9229 46.2345 15.8287 47.0307 15.0135C47.8269 14.1984 48.9104 13.7271 50.0496 13.7004C50.4096 13.7004 50.7576 13.7484 51.0912 13.8288C52.4664 8.3928 57.1548 4.2768 62.8836 3.7548C63.3276 2.3508 62.2836 1.3404 61.9536 1.0368C61.8888 0.9804 62.0196 0.936 62.0196 0.936C63.6708 1.728 63.9396 2.844 63.9036 3.5844C64.7544 1.2036 68.556 0 68.556 0L68.6232 0.1344C66.3516 1.506 66.0072 2.9304 66.0864 3.8376C68.7073 4.22879 71.1543 5.38522 73.1205 7.16181C75.0866 8.93841 76.4844 11.2561 77.1384 13.824C77.4789 13.7404 77.8282 13.6973 78.1788 13.6956" fill="#1F304C"/>
</g>
<defs>
<clipPath id="clip0">
<rect width="130.8" height="48" fill="white"/>
</clipPath>
</defs>
</svg>
